src/assets/img/TONMinimal.svg

<svg width="24" height="24" viewBox="0 0 24 24" fill="none" xmlns="http://www.w3.org/2000/svg">
<path d="M19.011 9.201L12.66 19.316C12.5825 19.4389 12.4751 19.5401 12.3477 19.61C12.2204 19.68 12.0774 19.7164 11.9321 19.7159C11.7868 19.7154 11.6441 19.678 11.5172 19.6072C11.3904 19.5363 11.2836 19.4344 11.207 19.311L4.97999 9.197C4.80583 8.91331 4.71375 8.58688 4.71399 8.254C4.72189 7.76261 4.92435 7.29442 5.27697 6.95211C5.6296 6.6098 6.10359 6.42131 6.59499 6.428H17.412C18.445 6.428 19.285 7.243 19.285 8.25C19.285 8.584 19.191 8.914 19.011 9.201ZM6.50999 8.863L11.142 16.007V8.143H6.99399C6.51399 8.143 6.29999 8.46 6.50999 8.863ZM12.857 16.007L17.49 8.863C17.704 8.46 17.485 8.143 17.005 8.143H12.857V16.007Z" fill="white"/>
</svg>

<svg xmlns="http://www.w3.org/2000/svg" width="24" height="24" fill="none"><path fill="#fff" d="M19.011 9.201 12.66 19.316a.856.856 0 0 1-1.453-.005L4.98 9.197a1.8 1.8 0 0 1-.266-.943 1.856 1.856 0 0 1 1.881-1.826h10.817c1.033 0 1.873.815 1.873 1.822 0 .334-.094.664-.274.951ZM6.51 8.863l4.632 7.144V8.143H6.994c-.48 0-.694.317-.484.72Zm6.347 7.144 4.633-7.144c.214-.403-.005-.72-.485-.72h-4.148v7.864Z"/></svg>
